X:383
T:Kinrara
R:Reel
B:The Athole Collection
M:C|
L:1/8
K:F
A|~F2 FC A,B,CF|D<D ~F>G A3c|AFFC A,B,CA,|G,<G A^C D2 DA|
~F2 FC A,B,CF|D<D F>G A2 Ac|AFFC A,B,CA,|G,G, A,^C D2D||
f|cAfA cAAa|fedc A2 Af|cAfA cAAc|GG A^c d2 df|cAfA cAAc|
defg a2 ge|fdec BGAF|CFA,^C D2D||

